X:1
T:PM Robert Caudill
R:March
C:Karen McKenzie
M:2/4
L:1/8
Q:"78 bpm"
K:D
[|: {g}A2 {gcd}c>d | {g}eA {gfg}f2 | {g}e>f {gef}eA | {Gdc}dc {gcd}cB | 
	{g}A2 {gcd}c>d | {g}eA {gfg}f2 | {gef}eA {Gdc}dc | {gBd}B2 {G}A2 :|]
[|: {gef}e2 {ag}a>e | {g}fe {gcd}c2 | {g}e>f {ag}ac | {Gdc}dc {gcd}cB | 
	{gef}e2 {ag}a>e | {g}fe {gcd}c2 | {gef}eA {Gdc}dc | {gBd}B2 {G}A2 :|]
[|: {g}A2 {gcd}c{e}A | {Gdc}df {gef}e2 | {g}A>{d}c {gef}eA | {Gdc}dc {gcd}cB | 
	{g}A2 {gcd}c{e}A | {Gdc}df {gef}e2 | {gef}eA {Gdc}dc | {gBd}B2 {G}A2 :|]
[|: a2 {GdG}a>e | {gcd}ce {ag}a2 | {g}a2 {GdG}a>c | {Gdc}dc {gcd}cB |
	a2 {GdG}a>e | {gcd}ce {ag}a2 | {ef}eA {Gdc}dc | {gBd}B2 {G}A2 :|]
